X:1
T:Title
%%score { ( 1 3 5 ) | ( 2 4 ) }
L:1/8
M:4/4
K:F
V:1 treble nm="Grand Piano"
V:3 treble 
V:5 treble 
V:2 bass 
V:4 bass 
V:1
 z8[Q:1/4=88] | [FAc]2 [FAc]2 [FAc]2 [FAc]2 | [FBd]2 [FBd]2 [FBd]2 DE | FFFF A2 [=B,FG]2 | G6 z2 | %5
 [FAc]2 [FAc]2 [FAc]2 [FAc]2 |[M:3/4] [FBd]2 [^FAd]2 [GBd]2 |[M:1/4] [Fd][Fd] | %8
[M:4/4] [Fc][Fc][Fc][Fd] [FA]2 [EG]2 |[M:3/4] F6 |[M:1/4] A2 |[M:4/4] cccc d2 c2 | A6 z2 | %13
 c c2 A F2 BA | G6 z2 | AAAA AGFA |[M:7/8] ccc c [Fd]3 |[M:1/4] [Fd][Fd] | %18
[M:4/4] [Fc][Fc][Fc][Fd] [FA]2 [EG]2 |[M:7/4] F6 z2 z2 z4 |] %20
V:2
 z4 z2 F,G, | A,A,_A,=A, DCE,F, | B,A,A,G, D,2 [G,=B,][K:treble][G,B,D] | %3
 [G,=B,D][G,B,D][G,B,D][G,B,D] [G,B,F]2[K:bass] G,,2 | C,2 D,2 C,2 F,G, | A,A,_A,=A, DCE,F, | %6
[M:3/4] B,A, A,G, D2 |[M:1/4] [B,,B,][B,,B,] |[M:4/4] [C,A,][C,A,][C,A,][C,A,] [C,C]2 [C,B,]2 | %9
[M:3/4] [F,A,]6 |[M:1/4] [F,CF]2 |[M:4/4] [F,A,F][F,A,F][F,A,F][F,A,F] [F,B,F]2 [F,A,F]2 | F6 z2 | %13
 [F,A,F] [F,A,F]2 [F,CF] [F,A,]2 [F,DF][F,CF] | [C,C]2 [D,=B,]2 .[C,C]2 [F,A,][F,_B,F] | %15
 [F,CF][F,CF][F,CF][F,CF] [F,CF][F,B,F][F,A,][F,CF] | %16
[M:7/8] [F,A,F][F,A,F][F,A,F] [F,A,F] [B,,B,]3 |[M:1/4] [B,,B,][B,,B,] | %18
[M:4/4] [C,A,][C,A,][C,A,][C,A,] [C,C]2 [C,B,]2 |[M:7/4] [F,A,]6 z2 z2 z4 |] %20
V:3
 x8 | x8 | x8 | x8 | [CE]2 [=B,F]2 [_B,E]2 z2 | x8 |[M:3/4] x6 |[M:1/4] x2 |[M:4/4] x8 | %9
[M:3/4] x6 |[M:1/4] x2 |[M:4/4] x8 | z CCC C2 AB | x8 | E2 F2 z B,FG | x8 |[M:7/8] x7 |[M:1/4] x2 | %18
[M:4/4] x8 |[M:7/4] x14 |] %20
V:4
 x8 | x8 | x7[K:treble] x | x6[K:bass] x2 | x8 | x8 |[M:3/4] x6 |[M:1/4] x2 |[M:4/4] x8 | %9
[M:3/4] x6 |[M:1/4] x2 |[M:4/4] x8 | [F,C]F,F,F, F,2 [F,CF][F,G,F] | x8 | x8 | x8 |[M:7/8] x7 | %17
[M:1/4] x2 |[M:4/4] x8 |[M:7/4] x14 |] %20
V:5
 x8 | x8 | x8 | x8 | x8 | x8 |[M:3/4] x6 |[M:1/4] x2 |[M:4/4] x8 |[M:3/4] x6 |[M:1/4] x2 | %11
[M:4/4] x8 | x8 | x8 | z4 E2 z2 | x8 |[M:7/8] x7 |[M:1/4] x2 |[M:4/4] x8 |[M:7/4] x14 |] %20

